X: 70
M:6/8
L:1/8
K:G
vB/A/|\
|:vB/d/|\
e2e e2e | egf edB | d2d d2d | dge dBG |
c2d e2d | gdB A2d | BGA BcA | BGG G2:|


